Numix-GalliumOS/48/actions/go-bottom.svg

<svg width="48" xmlns="http://www.w3.org/2000/svg" height="48" viewBox="0 0 48 48" xmlns:xlink="http://www.w3.org/1999/xlink">
<g style="fill-rule:evenodd">
<path style="fill:#268bd2" d="M 24 44 C 35.042969 44 44 35.042969 44 24 C 44 12.957031 35.042969 4 24 4 C 12.957031 4 4 12.957031 4 24 C 4 35.042969 12.957031 44 24 44 Z "/>
<path style="fill:#fff;fill-opacity:.902" d="M 8 36 C 12 42 17.921875 44 24 44 C 30.066406 44 36 42 40 36 "/>
</g>
<path style="fill:#fff;fill-opacity:.902" d="M 23.992188 36 C 24.605469 36 25.1875 35.738281 25.617188 35.3125 L 33.304688 27.875 C 33.730469 27.472656 33.976562 26.898438 33.992188 26.3125 C 34.023438 25.382812 33.496094 24.550781 32.617188 24.1875 C 31.742188 23.824219 30.714844 24.019531 30.054688 24.6875 L 25.992188 28.625 L 25.992188 12 L 21.992188 12 L 21.992188 28.625 L 17.929688 24.6875 C 17.03125 23.8125 15.582031 23.8125 14.679688 24.6875 C 13.78125 25.5625 13.78125 27 14.679688 27.875 L 22.367188 35.3125 C 22.800781 35.738281 23.382812 36 23.992188 36 Z "/>
</svg>

<svg xmlns="http://www.w3.org/2000/svg" viewBox="0 0 48 48">
 <g style="fill-rule:evenodd">
  <path d="m 24 4 c -11.04 0 -20 8.957 -20 20 0 4.508 1.511 8.655 4.03 12 7.971 2 21.971 2 31.941 0 2.518 -3.345 4.03 -7.492 4.03 -12 0 -11.04 -8.957 -20 -20 -20" style="fill:#268bd2"/>
  <path d="m 8 36 c 4 6 9.922 8 16 8 c 6.066 0 12 -2 16 -8" style="fill:#eaf4fb;fill-opacity:1"/>
 </g>
 <path d="m 23.992 36 c 0.613 0 1.195 -0.262 1.625 -0.688 l 7.688 -7.438 c 0.426 -0.402 0.672 -0.977 0.688 -1.563 c 0.031 -0.93 -0.496 -1.762 -1.375 -2.125 c -0.875 -0.363 -1.902 -0.168 -2.563 0.5 l -4.063 3.938 l 0 -16.625 l -4 0 l 0 16.625 l -4.063 -3.938 c -0.898 -0.875 -2.348 -0.875 -3.25 0 c -0.898 0.875 -0.898 2.313 0 3.188 l 7.687 7.438 c 0.434 0.426 1.016 0.688 1.625 0.688 Z" style="fill:#eaf4fb;fill-opacity:1"/>
</svg>
